X: 71
T:Minuet,A. JaW.071
M:3/4
L:1/8
Q:120
S:James Winder Ms, Lancashire, 1835-41
R:Minuet
O:England
A:Wyresdale,Lancashire
H:1/8
Z:vmp.Chris Partington, Aug 2004
K:Bb
g2d4|B2ABG2|e2d2c2|B4A2|
B2GABc|d2cBAG|^FG (G3^F/G/)|A6:|!
|:f2f2f2|f2edcB|AB (B3A/B/)|c6|
a2^f2c2|B4A2|{e}d2cBAG|^F2=EFD2|
(AG)^F2F2|(c3B)A2|(e2d2)c2|^f6|
g2fedc|B2ABG2|A2D2^F2|G6:|]
